flaticon/user-interface/decrease.svg

<svg xmlns="http://www.w3.org/2000/svg" width="32" height="32" viewBox="0 0 24 24">
    <path d="M 0 0.199219 L 0 23.800781 L 24 23.800781 L 24 0.199219 Z M 23.199219 23 L 0.800781 23 L 0.800781 1 L 23.199219 1 Z M 23.199219 23"/>
    <path d="M11.601562 19.398438L19.601562 19.398438C19.820312 19.398438 20 19.222656 20 19 20 18.777344 19.820312 18.601562 19.601562 18.601562L11.601562 18.601562C11.378906 18.601562 11.199219 18.777344 11.199219 19 11.199219 19.222656 11.378906 19.398438 11.601562 19.398438zM11.601562 16.601562L16.800781 16.601562C17.019531 16.601562 17.199219 16.421875 17.199219 16.199219 17.199219 15.980469 17.019531 15.800781 16.800781 15.800781L11.601562 15.800781C11.378906 15.800781 11.199219 15.980469 11.199219 16.199219 11.199219 16.421875 11.378906 16.601562 11.601562 16.601562zM11.601562 13.800781L19.601562 13.800781C19.820312 13.800781 20 13.621094 20 13.398438 20 13.179688 19.820312 13 19.601562 13L11.601562 13C11.378906 13 11.199219 13.179688 11.199219 13.398438 11.199219 13.621094 11.378906 13.800781 11.601562 13.800781zM11.601562 11L18.800781 11C19.019531 11 19.199219 10.820312 19.199219 10.601562 19.199219 10.378906 19.019531 10.199219 18.800781 10.199219L11.601562 10.199219C11.378906 10.199219 11.199219 10.378906 11.199219 10.601562 11.199219 10.820312 11.378906 11 11.601562 11zM11.601562 8.199219L17.199219 8.199219C17.421875 8.199219 17.601562 8.019531 17.601562 7.800781 17.601562 7.578125 17.421875 7.398438 17.199219 7.398438L11.601562 7.398438C11.378906 7.398438 11.199219 7.578125 11.199219 7.800781 11.199219 8.019531 11.378906 8.199219 11.601562 8.199219zM11.601562 5.398438L19.601562 5.398438C19.820312 5.398438 20 5.222656 20 5 20 4.777344 19.820312 4.601562 19.601562 4.601562L11.601562 4.601562C11.378906 4.601562 11.199219 4.777344 11.199219 5 11.199219 5.222656 11.378906 5.398438 11.601562 5.398438zM6.117188 11.28125C6.152344 11.320312 6.199219 11.347656 6.246094 11.371094 6.296875 11.390625 6.347656 11.398438 6.398438 11.398438 6.453125 11.398438 6.503906 11.390625 6.554688 11.371094 6.601562 11.347656 6.644531 11.320312 6.683594 11.28125L9.484375 8.484375C9.640625 8.328125 9.640625 8.074219 9.484375 7.917969 9.328125 7.761719 9.074219 7.761719 8.917969 7.917969L6.800781 10.035156 6.800781 4.199219C6.800781 3.980469 6.621094 3.800781 6.398438 3.800781 6.179688 3.800781 6 3.980469 6 4.199219L6 10.035156 3.882812 7.917969C3.726562 7.761719 3.472656 7.761719 3.316406 7.917969 3.160156 8.074219 3.160156 8.328125 3.316406 8.484375zM3.601562 16.199219C3.703125 16.199219 3.804688 16.160156 3.882812 16.082031L6 13.964844 6 19.800781C6 20.019531 6.179688 20.199219 6.398438 20.199219 6.621094 20.199219 6.800781 20.019531 6.800781 19.800781L6.800781 13.964844 8.917969 16.082031C8.996094 16.160156 9.097656 16.199219 9.199219 16.199219 9.300781 16.199219 9.40625 16.160156 9.484375 16.082031 9.640625 15.925781 9.640625 15.671875 9.484375 15.515625L6.683594 12.71875C6.644531 12.679688 6.601562 12.652344 6.554688 12.628906 6.457031 12.589844 6.34375 12.589844 6.246094 12.628906 6.199219 12.652344 6.152344 12.679688 6.117188 12.71875L3.316406 15.515625C3.160156 15.671875 3.160156 15.925781 3.316406 16.082031 3.394531 16.160156 3.496094 16.199219 3.601562 16.199219zM3.601562 16.199219"/>
</svg>

<svg xmlns="http://www.w3.org/2000/svg" width="32" height="32" viewBox="0 0 24 24">
    <path d="M0 .2v23.6h24V.2zM23.2 23H.8V1h22.4zm0 0"/>
    <path d="M11.602 19.398h8a.398.398 0 1 0 0-.796h-8a.398.398 0 1 0 0 .796zm0 0M11.602 16.602H16.8a.401.401 0 0 0 0-.801h-5.2a.401.401 0 1 0 0 .8zm0 0M11.602 13.8h8a.401.401 0 0 0 0-.8h-8a.401.401 0 1 0 0 .8zm0 0M11.602 11H18.8a.4.4 0 0 0 0-.8h-7.2a.401.401 0 0 0 0 .8zm0 0M11.602 8.2h5.597a.401.401 0 1 0 0-.802h-5.597a.401.401 0 0 0 0 .8zm0 0M11.602 5.398h8a.398.398 0 1 0 0-.796h-8a.398.398 0 1 0 0 .796zm0 0M6.117 11.281c.035.04.082.067.13.09.05.02.1.027.151.027a.425.425 0 0 0 .157-.027.48.48 0 0 0 .129-.09l2.8-2.797a.4.4 0 0 0-.566-.566l-2.117 2.117V4.2A.401.401 0 0 0 6 4.2v5.836L3.883 7.918a.4.4 0 0 0-.567.566zm0 0M3.602 16.2c.101 0 .203-.04.28-.118L6 13.965V19.8a.4.4 0 0 0 .8 0v-5.836l2.118 2.117c.078.078.18.117.281.117a.4.4 0 0 0 .285-.684l-2.8-2.796a.48.48 0 0 0-.13-.09.421.421 0 0 0-.308 0 .425.425 0 0 0-.129.09l-2.8 2.797a.4.4 0 0 0 .285.683zm0 0"/>
</svg>
